X:1
T:The True Lovers Departure
M:6/8
L:1/8
K:G
 B,| D2 DE-F A| B2- A F2E/2-D/2| E2 D B,2 B,| B,3- B,2 D| D2 DE-F A|\
 B3 d2 B| A2 A D2 E| F2 z2 z A,| D2 DE-F A| B3 d2 B| A2 A D2 E| F2 z z2 B|\
 B2 A F2E/2-D/2| E2- F A2 F| E2 D B,2 B,| B,2 z2 z||
